X:0963
T:The Boatie Rows.
M:2/4
L:1/8
Q:1/4=100
I: ||
N:check this somewhere else NOT INDE
<end>
<start>
XED YET
Z:Jack Campin * www.campin.me.uk * 2009
K:E Minor
 D|F<AAD|GBBd |A<FFD|E3
 D|FA`AD|GB`Bd|A>FFD|E2z
 D|d>AAB|dAA>A|BA`Bd|e2
de|f(e/d/) fe|dB A(B/c/)|{e}Hd3  B|A>FFD|E3|]
<end>
<start>
